svgs/thin/wheelchair.svg

<svg xmlns="http://www.w3.org/2000/svg" viewBox="0 0 512 512"><!--! Font Awesome Pro 6.3.0 by @fontawesome - https://fontawesome.com License - https://fontawesome.com/license (Commercial License) Copyright 2023 Fonticons, Inc. --><path d="M192 104c28.72 0 52-23.28 52-52S220.7 0 192 0S140 23.28 140 52S163.3 104 192 104zM192 16c19.85 0 36 16.15 36 36s-16.15 36-36 36c-19.85 0-36-16.15-36-36S172.2 16 192 16zM310.3 376.2c-4.188-.9687-8.562 1.812-9.5 6.125C286.7 448.2 227.5 496 160 496c-79.41 0-144-64.59-144-144c0-67.47 47.81-126.7 113.7-140.8c4.328-.9062 7.078-5.156 6.156-9.5c-.9219-4.312-5.266-7.094-9.5-6.125C53.13 211.2 0 277 0 352c0 88.22 71.78 160 160 160c74.97 0 140.7-53.13 156.5-126.3C317.4 381.3 314.6 377.1 310.3 376.2zM510.3 421.9c-4.471-13.39-16.83-21.88-30.26-21.88c-3.373 0-6.813 .5371-10.21 1.666l-19.38 6.438l-41.7-99.97C403.9 295.1 392.2 288 379.1 288h-97.78l-10.4-48h65.11c17.69 0 32-14.31 32-32s-14.31-32-32-32h-78.98L255.6 169.2C252.1 145.3 231.3 128 207.1 127.1c-2.232 0-4.482 .1582-6.746 .4824C174.1 132.2 156.7 156.5 160.5 182.8l23.68 140.4C185.8 339.6 199.6 352 216 352h141.4l44.86 107.9C407.3 472.3 419.3 480 432 480c3.344 0 6.781-.5313 10.12-1.656l48-16C506.9 456.8 515.9 438.7 510.3 421.9zM494.3 439.2c-1.908 3.809-5.18 6.645-9.23 7.988l-48.04 16.02C435.4 463.7 433.7 464 432 464c-6.576 0-12.41-3.957-14.94-10.27L368.1 336H216c-8.244 0-15.09-6.186-16.06-15.43L176.3 180.5C173.8 163.1 186 146.8 203.5 144.3C205 144.1 206.5 143.1 207.1 143.1C223.8 144 237.5 155.8 239.9 172.6L244.1 192H336C344.8 192 352 199.2 352 208S344.8 224 336 224H251.1l17.34 80h110.7c6.588 0 12.42 3.951 14.96 10.29l47.42 113.7l33.47-11.12c1.697-.5645 3.438-.8516 5.17-.8516c6.832 0 12.89 4.402 15.08 10.94C496.5 431 496.2 435.3 494.3 439.2z"/></svg>

<svg xmlns="http://www.w3.org/2000/svg" viewBox="0 0 512 512"><!-- Font Awesome Pro 6.0.0-alpha2 by @fontawesome - https://fontawesome.com License - https://fontawesome.com/license (Commercial License) --><path d="M192.002 104C220.721 104 244.002 80.717 244.002 52S220.721 0 192.002 0S140.002 23.283 140.002 52S163.283 104 192.002 104ZM192.002 16C211.852 16 228.002 32.15 228.002 52S211.852 88 192.002 88C172.15 88 156.002 71.85 156.002 52S172.15 16 192.002 16ZM310.297 376.188C306.109 375.219 301.734 378 300.797 382.312C286.688 448.188 227.469 496 160 496C80.594 496 16 431.406 16 352C16 284.531 63.812 225.312 129.672 211.188C134 210.281 136.75 206.031 135.828 201.688C134.906 197.375 130.562 194.594 126.328 195.563C53.125 211.219 0 277.031 0 352C0 440.219 71.781 512 160 512C234.969 512 300.75 458.875 316.453 385.688C317.375 381.344 314.625 377.094 310.297 376.188ZM510.348 421.875C505.877 408.488 493.52 399.99 480.092 399.99C476.719 399.99 473.279 400.527 469.879 401.656L450.502 408.094L408.801 308.125C403.939 295.969 392.168 288 379.076 288H281.297L270.893 240H336.002C353.689 240 368.002 225.688 368.002 208S353.689 176 336.002 176H257.02L255.553 169.23C252.102 145.27 231.332 128 207.986 127.998C205.754 127.998 203.504 128.156 201.24 128.48C174.99 132.23 156.74 156.543 160.49 182.793L184.166 323.227C185.822 339.566 199.578 352 216.002 352H357.426L402.283 459.875C407.283 472.344 419.252 480 432.002 480C435.346 480 438.783 479.469 442.127 478.344L490.129 462.344C506.879 456.781 515.941 438.656 510.348 421.875ZM494.299 439.176C492.391 442.984 489.119 445.82 485.068 447.164L437.025 463.18C435.406 463.725 433.717 464 432.002 464C425.426 464 419.59 460.043 417.059 453.732L372.199 345.857L368.102 336H216.002C207.758 336 200.914 329.814 199.943 320.566L176.328 180.529C173.834 163.061 186.023 146.816 203.508 144.318C205.012 144.104 206.504 143.998 207.982 143.998H207.984C223.814 144 237.457 155.828 239.916 172.619L241.383 179.389L244.115 192H336.002C344.824 192 352.002 199.178 352.002 208S344.824 224 336.002 224H251.053L255.256 243.389L265.66 291.389L268.393 304H379.076C385.664 304 391.5 307.951 394.035 314.285L435.736 414.254L441.453 427.961L455.547 423.277L474.922 416.842C476.619 416.277 478.359 415.99 480.092 415.99C486.924 415.99 492.982 420.393 495.168 426.934C496.523 431 496.215 435.348 494.299 439.176Z"/></svg>
